; HEADER_BLOCK_START
; generated by OrcaSlicer 2.3.2-dev on 2026-05-23 at 17:35:45
; total layer number: 66
; filament_density: 1.24
; filament_diameter: 1.75
; max_z_height: 8.00
; HEADER_BLOCK_END

; external perimeters extrusion width = 0.45mm
; perimeters extrusion width = 0.45mm
; infill extrusion width = 0.45mm
; solid infill extrusion width = 0.45mm
; top infill extrusion width = 0.40mm
; first layer extrusion width = 0.42mm

; external perimeters extrusion width = 0.45mm
; perimeters extrusion width = 0.45mm
; infill extrusion width = 0.45mm
; solid infill extrusion width = 0.45mm
; top infill extrusion width = 0.40mm
; first layer extrusion width = 0.42mm

; EXECUTABLE_BLOCK_START
M73 P0 R146
M201 X500 Y500 Z100 E5000
M203 X500 Y500 Z10 E60
M204 P500 R1000 T500
M205 X8.00 Y8.00 Z0.40 E5.00 ; sets the jerk limits, mm/sec
;TYPE:Custom
G90 ; use absolute coordinates
M83 ; extruder relative mode
M140 S60 ; set final bed temp
M104 S150 ; set temporary nozzle temp to prevent oozing during homing
G4 S10 ; allow partial nozzle warmup
G28 ; home all axis
G1 Z50 F240
G1 X2 Y10 F3000
M104 S220 ; set final nozzle temp
M190 S60 ; wait for bed temp to stabilize
M109 S220 ; wait for nozzle temp to stabilize
G1 Z0.28 F240
G92 E0
G1 Y140 E10 F1500 ; prime the nozzle
G1 X2.3 F5000
G92 E0
G1 Y10 E10 F1200 ; prime the nozzle
G92 E0
G90
G21
M83 ; use relative distances for extrusion
; filament start gcode
M106 S0
;LAYER_CHANGE
;Z:0.2
;HEIGHT:0.2
;BEFORE_LAYER_CHANGE
;0.2
G92 E0

G1 E-4 F3600
;_SET_FAN_SPEED_CHANGING_LAYER
G1 Z.6 F9000
G1 X20.115 Y16.652
G1 Z.6
G1 Z.2
G1 E4 F2400
;TYPE:Skirt
;WIDTH:0.42
G1 F3000
G1 X33.687 Y3.08 E.58976
G1 X34.928 Y2.393 E.04359
G1 X36.344 Y2.471 E.04359
G1 X37.315 Y3.08 E.0352
G1 X216.92 Y182.685 E7.80471
G1 X217.607 Y183.926 E.04359
G1 X217.529 Y185.343 E.04359
G1 X216.92 Y186.313 E.0352
G1 X192.324 Y210.91 E1.06882
G1 X191.191 Y211.898 E.04619
G1 X189.559 Y212.926 E.05927
G1 X187.773 Y213.655 E.05927
G1 X185.888 Y214.063 E.05926
G1 X183.976 Y214.138 E.05879
G1 X182.05 Y213.876 E.05974
G1 X180.213 Y213.286 E.05926
G1 X178.507 Y212.387 E.05927
G1 X176.983 Y211.205 E.05927
G1 X9.09 Y43.325 E7.29546
G1 X8.102 Y42.192 E.04619
G1 X7.126 Y40.66 E.05584
G1 X6.379 Y38.881 E.05926
G1 X6.011 Y37.382 E.04743
G1 X5.85 Y35.557 E.05632
G1 X5.952 Y34.001 E.04791
G1 X6.345 Y32.227 E.05584
G1 X6.91 Y30.774 E.04791
G1 X7.883 Y29.108 E.05926
G1 X9.09 Y27.676 E.05756
G1 X20.086 Y16.68 E.47783
G1 X20.353 Y16.947 F9000
G1 F3000
G1 X33.953 Y3.347 E.59099
G1 X35.112 Y2.74 E.04019
G1 X36.41 Y2.903 E.04019
G1 X37.048 Y3.347 E.02388
G1 X216.653 Y182.952 E7.80471
G1 X217.26 Y184.111 E.04019
G1 X217.097 Y185.409 E.04019
G1 X216.653 Y186.047 E.02388
G1 X192.057 Y210.643 E1.06882
G1 X190.968 Y211.593 E.04442
G1 X189.392 Y212.587 E.05725
G1 X187.668 Y213.293 E.05725
G1 X185.847 Y213.688 E.05724
G1 X184 Y213.761 E.05679
G1 X182.139 Y213.509 E.05771
G1 X180.365 Y212.941 E.05724
G1 X178.716 Y212.074 E.05725
G1 X177.243 Y210.933 E.05725
G1 X9.357 Y43.059 E7.29521
G1 X8.407 Y41.969 E.04442
M73 P0 R145
G1 X7.413 Y40.394 E.05725
G1 X6.736 Y38.76 E.05432
G1 X6.384 Y37.324 E.04543
G1 X6.227 Y35.548 E.05478
G1 X6.325 Y34.058 E.04589
G1 X6.707 Y32.332 E.05432
G1 X7.249 Y30.94 E.04589
G1 X8.187 Y29.331 E.05724
G1 X9.357 Y27.943 E.05579
G1 X20.325 Y16.975 E.4766
; printing object leg_support.stl id:3152 copy 0
G1 E-2.8 F3600
;WIPE_START
G1 F3000
G1 X21.032 Y16.268 E-1.2
;WIPE_END
G1 Z.6 F9000
G1 X17.305 Y43.336 Z.6
G1 Z.2
G1 E4 F2400
;TYPE:Inner wall
;WIDTH:0.419999
G1 F900
G1 X17.222 Y43.384 E.00295
G1 X15.501 Y45.105 E.0748
G1 X11.416 Y41.02 E.17751
G1 X10.947 Y40.509 E.02132
G1 X10.533 Y39.969 E.02089
G1 X10.168 Y39.396 E.02088
G1 X9.854 Y38.793 E.02088
G1 X9.594 Y38.165 E.02088
G1 X9.39 Y37.517 E.02089
G1 X9.245 Y36.864 E.02057
G1 X9.132 Y35.834 E.03182
G1 X9.132 Y35.167 E.02052
G1 X9.244 Y34.142 E.03168
G1 X9.39 Y33.484 E.02069
G1 X9.594 Y32.836 E.02088
G1 X9.854 Y32.208 E.02089
G1 X10.168 Y31.605 E.02088
G1 X10.53 Y31.037 E.02071
G1 X11.176 Y30.233 E.03169
G1 X15.501 Y25.897 E.1882
G1 X194.103 Y204.499 E7.76111
G1 X189.763 Y208.829 E.18839
G1 X189.242 Y209.266 E.02089
G1 X188.685 Y209.656 E.02089
G1 X188.102 Y209.993 E.02071
G1 X187.162 Y210.406 E.03154
G1 X186.516 Y210.61 E.02083
G1 X185.852 Y210.758 E.02088
G1 X185.178 Y210.846 E.02088
G1 X184.499 Y210.876 E.02088
G1 X183.826 Y210.846 E.02071
G1 X182.807 Y210.69 E.03168
G1 X182.156 Y210.515 E.0207
G1 X181.518 Y210.283 E.02088
G1 X180.902 Y209.996 E.02089
G1 X180.313 Y209.656 E.02088
G1 X179.756 Y209.266 E.02088
G1 X179.236 Y208.829 E.0209
G1 X174.895 Y204.499 E.18839
G1 X176.681 Y202.712 E.07762
G1 X176.775 Y202.463 E.00819
G1 X176.746 Y202.179 E.00876
G1 X176.616 Y201.978 E.00736
G1 X17.976 Y43.338 E6.89368
G1 X17.747 Y43.232 E.00775
M73 P1 R145
G1 X17.476 Y43.238 E.00833
G1 X17.34 Y43.316 E.00482
G1 X17.504 Y43.666 F9000
;TYPE:Outer wall
G1 F900
G1 X15.501 Y45.669 E.08705
G1 X11.128 Y41.296 E.19003
G1 X10.641 Y40.765 E.02213
G1 X10.206 Y40.198 E.02195
G1 X9.822 Y39.596 E.02195
G1 X9.492 Y38.962 E.02195
G1 X9.219 Y38.302 E.02195
G1 X9.004 Y37.62 E.02196
G1 X8.851 Y36.929 E.02177
G1 X8.733 Y35.856 E.03316
G1 X8.733 Y35.145 E.02185
G1 X8.85 Y34.077 E.03301
G1 X9.004 Y33.381 E.0219
G1 X9.219 Y32.7 E.02195
G1 X9.493 Y32.04 E.02195
G1 X9.822 Y31.406 E.02195
G1 X10.206 Y30.804 E.02191
G1 X10.878 Y29.966 E.03302
G1 X15.501 Y25.333 E.20112
G1 X194.667 Y204.499 E7.78563
G1 X190.032 Y209.123 E.20118
G1 X189.485 Y209.582 E.02196
M73 P1 R144
G1 X188.9 Y209.992 E.02195
G1 X188.282 Y210.349 E.02191
G1 X187.303 Y210.78 E.03287
G1 X186.619 Y210.996 E.02204
G1 X185.921 Y211.15 E.02195
G1 X185.213 Y211.244 E.02195
G1 X184.499 Y211.275 E.02195
G1 X183.787 Y211.244 E.02191
G1 X182.725 Y211.08 E.03301
G1 X182.037 Y210.896 E.0219
G1 X181.365 Y210.651 E.02195
G1 X180.718 Y210.349 E.02196
G1 X180.099 Y209.992 E.02195
G1 X179.514 Y209.582 E.02195
G1 X178.966 Y209.123 E.02196
G1 X174.331 Y204.499 E.20117
G1 X176.334 Y202.496 E.08704
G1 X176.381 Y202.403 E.0032
G1 X176.334 Y202.26 E.00463
G1 X17.74 Y43.666 E6.89167
G1 X17.637 Y43.618 E.00349
G1 X17.542 Y43.652 E.00313
G1 E-2.8 F3600
;WIPE_START
G1 F900
G1 X16.83 Y44.355 E-1.2
;WIPE_END
G1 Z.6 F9000
G1 X15.379 Y26.179 Z.6
G1 Z.2
G1 E4 F2400
;TYPE:Bottom surface
;WIDTH:0.425617
G1 F2100
G1 X193.701 Y204.501 E7.86437
G1 X193.43 Y204.771 E.01193
G1 X15.229 Y26.57 E7.85905
G1 X14.959 Y26.841 E.01193
G1 X193.159 Y205.041 E7.85903
G1 X192.888 Y205.311 E.01193
G1 X14.689 Y27.112 E7.859
G1 X14.418 Y27.383 E.01193
G1 X192.617 Y205.582 E7.85897
G1 X192.346 Y205.852 E.01193
G1 X14.148 Y27.654 E7.85894
G1 X13.878 Y27.924 E.01193
M73 P2 R143
G1 X192.076 Y206.122 E7.85891
G1 X191.805 Y206.393 E.01193
G1 X13.607 Y28.195 E7.85888
G1 X13.337 Y28.466 E.01193
G1 X191.534 Y206.663 E7.85886
G1 X191.263 Y206.933 E.01193
G1 X13.067 Y28.737 E7.85883
G1 X12.797 Y29.008 E.01193
G1 X190.992 Y207.203 E7.8588
G1 X190.721 Y207.474 E.01193
G1 X12.526 Y29.279 E7.85877
G1 X12.256 Y29.55 E.01193
G1 X190.45 Y207.744 E7.85874
G1 X190.179 Y208.014 E.01193
G1 X11.986 Y29.821 E7.85871
G1 X11.715 Y30.092 E.01193
G1 X189.908 Y208.285 E7.85869
G1 X189.637 Y208.555 E.01193
M73 P2 R142
G1 X11.445 Y30.363 E7.85866
G1 X11.198 Y30.657 E.01198
G1 X189.349 Y208.807 E7.85684
G1 X189.053 Y209.053 E.01198
G1 X10.957 Y30.957 E7.85443
G1 X10.721 Y31.263 E.01203
M73 P3 R142
G1 X188.735 Y209.276 E7.85077
G1 X188.407 Y209.49 E.01219
G1 X10.511 Y31.593 E7.84562
G1 X10.314 Y31.937 E.01237
G1 X188.064 Y209.688 E7.83918
G1 X187.697 Y209.862 E.01267
G1 X10.128 Y32.293 E7.83116
G1 X9.967 Y32.674 E.01287
G1 X187.321 Y210.027 E7.82169
G1 X186.934 Y210.182 E.01299
M73 P3 R141
G1 X9.818 Y33.066 E7.81121
G1 X9.688 Y33.477 E.01345
G1 X186.523 Y210.312 E7.79879
G1 X186.086 Y210.416 E.01401
G1 X9.584 Y33.914 E7.78413
G1 X9.523 Y34.188 E.00876
G1 X9.503 Y34.374 E.00583
G1 X185.63 Y210.501 E7.76761
G1 X185.152 Y210.564 E.01505
G1 X177.049 Y202.461 E.35738
G1 X177.062 Y202.302 E.00499
G1 X177.012 Y202.083 E.007
G1 X176.96 Y201.969 E.0039
G1 X176.821 Y201.783 E.00725
G1 X18.217 Y43.179 E6.99477
G1 X18.031 Y43.04 E.00726
G1 X17.917 Y42.988 E.0039
G1 X17.698 Y42.938 E.00701
G1 X17.539 Y42.951 E.00497
G1 X9.449 Y34.862 E.35677
G1 X9.414 Y35.182 E.01005
G1 X9.414 Y35.368 E.00579
G1 X17.137 Y43.091 E.3406
G1 X16.856 Y43.35 E.01194
G1 X9.425 Y35.92 E.32769
G1 X9.492 Y36.528 E.01907
G1 X16.585 Y43.621 E.31281
G1 X16.315 Y43.892 E.01193
G1 X9.605 Y37.182 E.29591
G1 X9.663 Y37.444 E.00836
G1 X9.818 Y37.937 E.01612
G1 X16.044 Y44.162 E.27456
G1 X15.773 Y44.433 E.01193
G1 X10.215 Y38.875 E.24512
G1 X10.413 Y39.255 E.01335
G1 X10.765 Y39.807 E.02043
G1 X11.164 Y40.327 E.02043
G1 X11.577 Y40.778 E.01909
G1 X15.623 Y44.823 E.17841
G1 E-2.8 F3600
;WIPE_START
G1 F2100
G1 X14.916 Y44.116 E-1.2
;WIPE_END
G1 Z.6 F9000
G1 X176.788 Y202.741 Z.6
G1 Z.2
G1 E4 F2400
G1 F2100
G1 X184.634 Y210.587 E.34601
G1 X184.08 Y210.575 E.01727
G1 X176.65 Y203.144 E.32769
G1 X176.379 Y203.415 E.01193
G1 X183.47 Y210.505 E.31271
G1 X182.824 Y210.401 E.02038
G1 X176.108 Y203.685 E.29619
G1 X175.838 Y203.956 E.01193
G1 X182.061 Y210.18 E.27448
G1 X181.626 Y210.021 E.01445
G1 X181.131 Y209.79 E.01704
G1 X175.567 Y204.227 E.24537
G1 X175.297 Y204.497 E.01193
G1 X180.326 Y209.526 E.22179
; stop printing object leg_support.stl id:3152 copy 0
; printing object leg_support.stl id:3152 copy 0
G1 E-2.8 F3600
;WIPE_START
G1 F2100
G1 X179.619 Y208.819 E-1.2
;WIPE_END
G1 Z.6 F9000
G1 X37.305 Y23.336 Z.6
G1 Z.2
G1 E4 F2400
;TYPE:Inner wall
;WIDTH:0.419999
G1 F900
G1 X37.222 Y23.384 E.00295
G1 X35.501 Y25.105 E.0748
G1 X31.416 Y21.02 E.17751
G1 X30.947 Y20.509 E.02132
G1 X30.533 Y19.969 E.02089
G1 X30.168 Y19.396 E.02088
G1 X29.854 Y18.793 E.02088
G1 X29.594 Y18.165 E.02088
G1 X29.39 Y17.517 E.02089
G1 X29.245 Y16.864 E.02057
G1 X29.132 Y15.834 E.03182
G1 X29.132 Y15.167 E.02052
G1 X29.244 Y14.142 E.03168
G1 X29.39 Y13.484 E.02069
G1 X29.594 Y12.836 E.02088
G1 X29.854 Y12.208 E.02089
G1 X30.168 Y11.605 E.02088
G1 X30.53 Y11.037 E.02071
G1 X31.176 Y10.233 E.03169
G1 X35.501 Y5.897 E.1882
G1 X214.103 Y184.499 E7.76111
G1 X209.763 Y188.829 E.18839
M73 P4 R140
G1 X209.242 Y189.266 E.02089
G1 X208.685 Y189.656 E.02089
G1 X208.102 Y189.993 E.02071
G1 X207.162 Y190.406 E.03154
G1 X206.516 Y190.61 E.02083
G1 X205.852 Y190.758 E.02088
G1 X205.178 Y190.846 E.02088
G1 X204.499 Y190.876 E.02088
G1 X203.826 Y190.846 E.02071
G1 X202.807 Y190.69 E.03168
G1 X202.156 Y190.515 E.0207
G1 X201.518 Y190.283 E.02088
G1 X200.902 Y189.996 E.02089
G1 X200.313 Y189.656 E.02088
G1 X199.756 Y189.266 E.02088
G1 X199.236 Y188.829 E.0209
G1 X194.895 Y184.499 E.18839
G1 X196.681 Y182.712 E.07762
G1 X196.775 Y182.463 E.00819
G1 X196.746 Y182.179 E.00876
G1 X196.616 Y181.978 E.00736
G1 X37.976 Y23.338 E6.89368
G1 X37.747 Y23.232 E.00775
G1 X37.476 Y23.238 E.00833
G1 X37.34 Y23.316 E.00482
G1 X37.504 Y23.666 F9000
;TYPE:Outer wall
G1 F900
G1 X35.501 Y25.669 E.08705
G1 X31.128 Y21.296 E.19003
G1 X30.641 Y20.765 E.02213
G1 X30.206 Y20.198 E.02195
G1 X29.822 Y19.596 E.02195
G1 X29.492 Y18.962 E.02195
G1 X29.219 Y18.302 E.02195
G1 X29.004 Y17.62 E.02196
G1 X28.851 Y16.929 E.02177
G1 X28.733 Y15.856 E.03316
G1 X28.733 Y15.145 E.02185
G1 X28.85 Y14.077 E.03301
G1 X29.004 Y13.381 E.0219
G1 X29.219 Y12.7 E.02195
G1 X29.493 Y12.04 E.02195
G1 X29.822 Y11.406 E.02195
G1 X30.206 Y10.804 E.02191
G1 X30.878 Y9.966 E.03302
G1 X35.501 Y5.333 E.20112
G1 X214.667 Y184.499 E7.78563
G1 X210.032 Y189.123 E.20118
G1 X209.485 Y189.582 E.02196
G1 X208.9 Y189.992 E.02195
G1 X208.282 Y190.349 E.02191
G1 X207.303 Y190.78 E.03287
G1 X206.619 Y190.996 E.02204
G1 X205.921 Y191.15 E.02195
G1 X205.213 Y191.244 E.02195
G1 X204.499 Y191.275 E.02195
G1 X203.787 Y191.244 E.02191
G1 X202.725 Y191.08 E.03301
G1 X202.037 Y190.896 E.0219
G1 X201.365 Y190.651 E.02195
G1 X200.718 Y190.349 E.02196
G1 X200.099 Y189.992 E.02195
G1 X199.514 Y189.582 E.02195
G1 X198.966 Y189.123 E.02196
G1 X194.331 Y184.499 E.20117
G1 X196.334 Y182.496 E.08704
G1 X196.381 Y182.403 E.0032
G1 X196.334 Y182.26 E.00463
G1 X37.74 Y23.666 E6.89167
G1 X37.637 Y23.618 E.00349
M73 P4 R139
G1 X37.542 Y23.652 E.00313
G1 E-2.8 F3600
;WIPE_START
G1 F900
G1 X36.83 Y24.355 E-1.2
;WIPE_END
G1 Z.6 F9000
G1 X35.379 Y6.179 Z.6
G1 Z.2
G1 E4 F2400
;TYPE:Bottom surface
;WIDTH:0.425617
G1 F2100
G1 X213.701 Y184.501 E7.86437
G1 X213.43 Y184.771 E.01193
G1 X35.229 Y6.57 E7.85905
G1 X34.959 Y6.841 E.01193
G1 X213.159 Y185.041 E7.85903
G1 X212.888 Y185.311 E.01193
M73 P5 R139
G1 X34.689 Y7.112 E7.859
G1 X34.418 Y7.383 E.01193
G1 X212.617 Y185.582 E7.85897
G1 X212.346 Y185.852 E.01193
G1 X34.148 Y7.654 E7.85894
G1 X33.878 Y7.924 E.01193
G1 X212.076 Y186.122 E7.85891
G1 X211.805 Y186.393 E.01193
G1 X33.607 Y8.195 E7.85888
G1 X33.337 Y8.466 E.01193
M73 P5 R138
G1 X211.534 Y186.663 E7.85886
G1 X211.263 Y186.933 E.01193
G1 X33.067 Y8.737 E7.85883
G1 X32.797 Y9.008 E.01193
G1 X210.992 Y187.203 E7.8588
G1 X210.721 Y187.474 E.01193
G1 X32.526 Y9.279 E7.85877
G1 X32.256 Y9.55 E.01193
G1 X210.45 Y187.744 E7.85874
G1 X210.179 Y188.014 E.01193
G1 X31.986 Y9.821 E7.85871
G1 X31.715 Y10.092 E.01193
G1 X209.908 Y188.285 E7.85869
G1 X209.637 Y188.555 E.01193
M73 P6 R138
G1 X31.445 Y10.363 E7.85866
G1 X31.198 Y10.657 E.01198
G1 X209.349 Y188.807 E7.85684
G1 X209.053 Y189.053 E.01198
M73 P6 R137
G1 X30.957 Y10.957 E7.85443
G1 X30.721 Y11.263 E.01203
G1 X208.735 Y189.276 E7.85077
G1 X208.407 Y189.49 E.01219
G1 X30.511 Y11.593 E7.84562
G1 X30.314 Y11.937 E.01237
G1 X208.064 Y189.688 E7.83918
G1 X207.697 Y189.862 E.01267
G1 X30.128 Y12.293 E7.83116
G1 X29.967 Y12.674 E.01287
G1 X207.321 Y190.027 E7.82169
G1 X206.934 Y190.182 E.01299
G1 X29.818 Y13.066 E7.81121
G1 X29.688 Y13.477 E.01345
G1 X206.523 Y190.312 E7.79879
G1 X206.086 Y190.416 E.01401
M73 P6 R136
G1 X29.584 Y13.914 E7.78413
G1 X29.523 Y14.188 E.00876
G1 X29.503 Y14.374 E.00583
G1 X205.63 Y190.501 E7.76761
G1 X205.152 Y190.564 E.01505
G1 X197.049 Y182.461 E.35738
G1 X197.062 Y182.302 E.00499
G1 X197.012 Y182.083 E.007
G1 X196.96 Y181.969 E.0039
G1 X196.821 Y181.783 E.00725
G1 X38.217 Y23.179 E6.99477
G1 X38.031 Y23.04 E.00726
M73 P7 R136
G1 X37.917 Y22.988 E.0039
G1 X37.698 Y22.938 E.00701
G1 X37.539 Y22.951 E.00497
G1 X29.449 Y14.862 E.35677
G1 X29.414 Y15.182 E.01005
G1 X29.414 Y15.368 E.00579
G1 X37.137 Y23.091 E.3406
G1 X36.856 Y23.35 E.01194
G1 X29.425 Y15.92 E.32769
G1 X29.492 Y16.528 E.01907
G1 X36.585 Y23.621 E.31281
G1 X36.315 Y23.892 E.01193
G1 X29.605 Y17.182 E.29591
G1 X29.663 Y17.444 E.00836
G1 X29.818 Y17.937 E.01612
G1 X36.044 Y24.162 E.27456
G1 X35.773 Y24.433 E.01193
G1 X30.215 Y18.875 E.24512
G1 X30.413 Y19.255 E.01335
G1 X30.765 Y19.807 E.02043
G1 X31.164 Y20.327 E.02043
G1 X31.577 Y20.778 E.01909
G1 X35.623 Y24.823 E.17841
G1 E-2.8 F3600
;WIPE_START
G1 F2100
G1 X34.916 Y24.116 E-1.2
;WIPE_END
G1 Z.6 F9000
G1 X196.788 Y182.741 Z.6
G1 Z.2
G1 E4 F2400
G1 F2100
G1 X204.634 Y190.587 E.34601
G1 X204.08 Y190.575 E.01727
G1 X196.65 Y183.144 E.32769
G1 X196.379 Y183.415 E.01193
G1 X203.47 Y190.505 E.31271
G1 X202.824 Y190.401 E.02038
G1 X196.108 Y183.685 E.29619
G1 X195.838 Y183.956 E.01193
G1 X202.061 Y190.18 E.27448
G1 X201.626 Y190.021 E.01445
G1 X201.131 Y189.79 E.01704
G1 X195.567 Y184.227 E.24537
G1 X195.297 Y184.497 E.01193
G1 X200.326 Y189.526 E.22179
; stop printing object leg_support.stl id:3152 copy 0
M106 S255
;LAYER_CHANGE
;Z:0.32
;HEIGHT:0.12
;BEFORE_LAYER_CHANGE
;0.32
G92 E0

G1 E-2.8 F3600
;WIPE_START
G1 F2100
G1 X199.619 Y188.819 E-1.2
;WIPE_END
;_SET_FAN_SPEED_CHANGING_LAYER
G1 Z.72 F9000
G1 X207.016 Y196.217 Z.72
G1 Z.32
G1 E4 F2400
;TYPE:Skirt
;WIDTH:0.42
G1 F3000
G1 X192.324 Y210.91 E.40052
G1 X191.191 Y211.898 E.02898
G1 X189.559 Y212.926 E.03718
G1 X187.773 Y213.655 E.03718
G1 X185.888 Y214.063 E.03717
G1 X183.976 Y214.138 E.03688
G1 X182.05 Y213.876 E.03748
G1 X180.213 Y213.286 E.03718
G1 X178.507 Y212.387 E.03718
G1 X176.983 Y211.205 E.03718
G1 X9.09 Y43.325 E4.57657
G1 X8.102 Y42.192 E.02898
G1 X7.126 Y40.66 E.03503
G1 X6.379 Y38.881 E.03718
G1 X6.011 Y37.382 E.02975
G1 X5.85 Y35.557 E.03533
