; HEADER_BLOCK_START
; generated by OrcaSlicer 2.3.2-dev on 2026-05-18 at 10:01:58
; total layer number: 66
; filament_density: 1.24
; filament_diameter: 1.75
; max_z_height: 8.00
; HEADER_BLOCK_END

; external perimeters extrusion width = 0.45mm
; perimeters extrusion width = 0.45mm
; infill extrusion width = 0.45mm
; solid infill extrusion width = 0.45mm
; top infill extrusion width = 0.40mm
; first layer extrusion width = 0.42mm

; external perimeters extrusion width = 0.45mm
; perimeters extrusion width = 0.45mm
; infill extrusion width = 0.45mm
; solid infill extrusion width = 0.45mm
; top infill extrusion width = 0.40mm
; first layer extrusion width = 0.42mm

; EXECUTABLE_BLOCK_START
M73 P0 R231
M201 X500 Y500 Z100 E5000
M203 X500 Y500 Z10 E60
M204 P500 R1000 T500
M205 X8.00 Y8.00 Z0.40 E5.00 ; sets the jerk limits, mm/sec
;TYPE:Custom
G90 ; use absolute coordinates
M83 ; extruder relative mode
M140 S60 ; set final bed temp
M104 S150 ; set temporary nozzle temp to prevent oozing during homing
G4 S10 ; allow partial nozzle warmup
G28 ; home all axis
G1 Z50 F240
G1 X2 Y10 F3000
M104 S220 ; set final nozzle temp
M190 S60 ; wait for bed temp to stabilize
M109 S220 ; wait for nozzle temp to stabilize
G1 Z0.28 F240
G92 E0
G1 Y140 E10 F1500 ; prime the nozzle
M73 P0 R230
G1 X2.3 F5000
G92 E0
G1 Y10 E10 F1200 ; prime the nozzle
G92 E0
G90
G21
M83 ; use relative distances for extrusion
; filament start gcode
M106 S0
;LAYER_CHANGE
;Z:0.2
;HEIGHT:0.2
;BEFORE_LAYER_CHANGE
;0.2
G92 E0

G1 E-4 F3600
;_SET_FAN_SPEED_CHANGING_LAYER
G1 Z.6 F9000
G1 X45.684 Y20.925
G1 Z.6
G1 Z.2
G1 E4 F2400
;TYPE:Skirt
;WIDTH:0.42
G1 F3000
G1 X45.684 Y10.75 E.31265
G1 X45.755 Y9.724 E.03161
G1 X45.957 Y8.738 E.03092
G1 X46.282 Y7.803 E.0304
G1 X46.726 Y6.919 E.03041
G1 X47.282 Y6.1 E.03041
G1 X47.94 Y5.361 E.03041
G1 X48.6 Y4.782 E.02698
G1 X49.419 Y4.226 E.03041
G1 X50.303 Y3.782 E.03041
G1 X51.029 Y3.518 E.02372
G1 X51.991 Y3.29 E.03041
G1 X52.976 Y3.19 E.03041
G1 X166.716 Y1.685 E3.49522
G1 X171.75 Y1.684 E.15468
G1 X173.113 Y2.076 E.04359
G1 X174.06 Y3.133 E.04359
G1 X174.316 Y4.25 E.0352
G1 X174.316 Y209.25 E6.29908
G1 X174.243 Y210.293 E.03212
G1 X174.043 Y211.262 E.03041
G1 X173.718 Y212.197 E.0304
G1 X173.273 Y213.081 E.03041
G1 X172.718 Y213.9 E.03041
G1 X172.139 Y214.56 E.02697
G1 X171.4 Y215.218 E.03041
G1 X170.585 Y215.771 E.03027
G1 X169.702 Y216.216 E.03037
G1 X168.971 Y216.482 E.02388
G1 X168.009 Y216.71 E.03041
G1 X167.024 Y216.81 E.03041
G1 X53.284 Y218.315 E3.49522
G1 X48.25 Y218.316 E.15468
G1 X46.887 Y217.924 E.04359
G1 X45.94 Y216.867 E.04359
G1 X45.684 Y215.75 E.0352
G1 X45.684 Y20.965 E5.98521
G1 X46.061 Y20.965 F9000
G1 F3000
G1 X46.061 Y10.75 E.31387
G1 X46.128 Y9.78 E.02986
G1 X46.319 Y8.843 E.02938
G1 X46.627 Y7.955 E.02889
G1 X47.049 Y7.115 E.02889
G1 X47.576 Y6.336 E.02889
G1 X48.201 Y5.633 E.02889
G1 X48.836 Y5.076 E.02596
G1 X49.615 Y4.549 E.02889
G1 X51.134 Y3.88 E.05101
G1 X52.049 Y3.663 E.02889
G1 X52.984 Y3.567 E.02889
G1 X166.721 Y2.062 E3.49512
G1 X171.75 Y2.061 E.15452
G1 X172.998 Y2.452 E.04019
G1 X173.801 Y3.485 E.04019
G1 X173.939 Y4.25 E.02388
G1 X173.939 Y209.25 E6.29908
G1 X173.87 Y210.236 E.03036
G1 X173.681 Y211.157 E.02889
G1 X173.373 Y212.045 E.02889
G1 X172.951 Y212.885 E.02889
G1 X172.424 Y213.664 E.02889
G1 X171.866 Y214.299 E.02596
G1 X171.164 Y214.924 E.02889
G1 X170.389 Y215.449 E.02876
G1 X168.866 Y216.12 E.05114
G1 X167.951 Y216.337 E.02889
G1 X167.016 Y216.433 E.02889
G1 X53.279 Y217.938 E3.49512
G1 X48.25 Y217.939 E.15452
G1 X47.002 Y217.548 E.04019
G1 X46.199 Y216.515 E.04019
G1 X46.061 Y215.75 E.02388
G1 X46.061 Y21.005 E5.98398
; printing object plate_left.stl id:3152 copy 0
G1 E-2.8 F3600
;WIPE_START
G1 F3000
G1 X46.061 Y20.005 E-1.2
;WIPE_END
G1 Z.6 F9000
G1 X84.992 Y135.068 Z.6
G1 Z.2
G1 E4 F2400
;TYPE:Inner wall
;WIDTH:0.419999
G1 F900
G1 X85.175 Y135.117 E.00581
G1 X85.32 Y135.236 E.00577
G1 X85.412 Y135.382 E.00529
G1 X85.459 Y135.607 E.00707
G1 X85.459 Y149.893 E.43896
G1 X85.412 Y150.118 E.00707
G1 X85.237 Y150.342 E.00871
G1 X85.006 Y150.459 E.00797
G1 X68.607 Y150.459 E.50388
G1 X68.325 Y150.383 E.00898
G1 X68.18 Y150.264 E.00577
G1 X68.088 Y150.118 E.00529
G1 X68.041 Y149.893 E.00707
G1 X68.041 Y135.607 E.43896
G1 X68.088 Y135.382 E.00707
G1 X68.18 Y135.236 E.00529
G1 X68.325 Y135.117 E.00577
G1 X68.607 Y135.042 E.00898
G1 X84.893 Y135.042 E.50042
G1 X84.954 Y135.058 E.00193
G1 X84.893 Y135.44 F9000
;TYPE:Outer wall
G1 F900
G1 X85.019 Y135.498 E.00426
G1 X85.06 Y135.607 E.00359
G1 X85.06 Y149.893 E.43896
G1 X84.995 Y150.026 E.00454
G1 X84.893 Y150.06 E.0033
G1 X68.607 Y150.06 E.50042
G1 X68.481 Y150.003 E.00426
G1 X68.44 Y149.893 E.00359
G1 X68.44 Y135.607 E.43896
G1 X68.481 Y135.498 E.00359
G1 X68.607 Y135.44 E.00426
G1 X84.853 Y135.44 E.49919
G1 E-2.8 F3600
;WIPE_START
G1 F900
G1 X85.019 Y135.498 E-.21099
G1 X85.06 Y135.607 E-.14034
G1 X85.06 Y136.314 E-.84867
;WIPE_END
G1 Z.6 F9000
G1 X68.068 Y130.993 Z.6
G1 Z.2
G1 E4 F2400
;TYPE:Inner wall
G1 F900
G1 X68.041 Y130.893 E.00318
G1 X68.041 Y116.607 E.43896
G1 X68.124 Y116.313 E.00938
M73 P0 R229
G1 X68.235 Y116.181 E.00532
G1 X68.527 Y116.042 E.00994
G1 X84.893 Y116.042 E.50287
G1 X85.194 Y116.128 E.00962
G1 X85.335 Y116.255 E.00584
G1 X85.418 Y116.398 E.00508
G1 X85.459 Y116.607 E.00655
G1 X85.459 Y130.893 E.43896
G1 X85.412 Y131.118 E.00707
G1 X85.237 Y131.342 E.00871
G1 X84.997 Y131.459 E.0082
G1 X68.607 Y131.459 E.50363
G1 X68.325 Y131.383 E.00898
G1 X68.118 Y131.177 E.00898
G1 X68.079 Y131.032 E.00462
G1 X68.44 Y130.893 F9000
;TYPE:Outer wall
G1 F900
G1 X68.44 Y116.607 E.43896
G1 X68.497 Y116.481 E.00425
G1 X68.607 Y116.44 E.0036
G1 X84.893 Y116.44 E.50042
G1 X85.024 Y116.503 E.00446
G1 X85.06 Y116.607 E.00339
G1 X85.06 Y130.893 E.43896
G1 X84.995 Y131.026 E.00454
G1 X84.924 Y131.06 E.00242
G1 X68.607 Y131.06 E.50137
G1 X68.487 Y131.009 E.00401
G1 X68.455 Y130.93 E.00262
G1 E-2.8 F3600
;WIPE_START
G1 F900
G1 X68.454 Y129.93 E-1.2
;WIPE_END
G1 Z.6 F9000
G1 X104.442 Y130.972 Z.6
G1 Z.2
G1 E4 F2400
;TYPE:Inner wall
G1 F900
G1 X104.412 Y131.118 E.00458
G1 X104.237 Y131.342 E.00871
G1 X104.006 Y131.459 E.00797
G1 X87.607 Y131.459 E.50388
G1 X87.325 Y131.383 E.00898
G1 X87.18 Y131.264 E.00577
G1 X87.088 Y131.118 E.00529
G1 X87.041 Y130.893 E.00707
G1 X87.041 Y116.607 E.43896
G1 X87.082 Y116.398 E.00655
G1 X87.244 Y116.173 E.00851
G1 X87.499 Y116.042 E.00881
G1 X103.893 Y116.042 E.50375
G1 X104.194 Y116.128 E.00962
G1 X104.335 Y116.255 E.00584
G1 X104.418 Y116.398 E.00508
G1 X104.459 Y116.607 E.00655
G1 X104.459 Y130.893 E.43896
G1 X104.45 Y130.933 E.00126
G1 X104.06 Y130.893 F9000
;TYPE:Outer wall
G1 F900
G1 X103.995 Y131.026 E.00454
G1 X103.893 Y131.06 E.0033
G1 X87.607 Y131.06 E.50042
G1 X87.481 Y131.003 E.00426
G1 X87.44 Y130.893 E.00359
G1 X87.44 Y116.607 E.43896
G1 X87.5 Y116.479 E.00434
G1 X87.575 Y116.44 E.0026
G1 X103.893 Y116.44 E.5014
G1 X104.024 Y116.503 E.00446
G1 X104.06 Y116.607 E.00339
G1 X104.06 Y130.853 E.43773
G1 E-2.8 F3600
;WIPE_START
G1 F900
G1 X103.995 Y131.026 E-.22139
G1 X103.893 Y131.06 E-.12893
G1 X103.185 Y131.06 E-.84968
;WIPE_END
G1 Z.6 F9000
G1 X122.992 Y131.432 Z.6
G1 Z.2
G1 E4 F2400
;TYPE:Inner wall
G1 F900
G1 X122.893 Y131.459 E.00316
G1 X106.607 Y131.459 E.50042
G1 X106.325 Y131.383 E.00898
G1 X106.18 Y131.264 E.00577
G1 X106.088 Y131.118 E.00529
G1 X106.041 Y130.893 E.00707
G1 X106.041 Y116.607 E.43896
G1 X106.082 Y116.398 E.00655
G1 X106.244 Y116.173 E.00851
G1 X106.499 Y116.042 E.00881
G1 X122.893 Y116.042 E.50375
G1 X123.076 Y116.072 E.00571
G1 X123.345 Y116.268 E.01022
G1 X123.459 Y116.526 E.00867
G1 X123.459 Y130.893 E.44145
G1 X123.382 Y131.177 E.00904
G1 X123.175 Y131.383 E.00898
G1 X123.031 Y131.422 E.00458
G1 X122.893 Y131.06 F9000
;TYPE:Outer wall
G1 F900
G1 X106.607 Y131.06 E.50042
G1 X106.481 Y131.003 E.00426
G1 X106.44 Y130.893 E.00359
G1 X106.44 Y116.607 E.43896
G1 X106.5 Y116.479 E.00434
G1 X106.575 Y116.44 E.0026
G1 X122.893 Y116.44 E.5014
G1 X123.027 Y116.507 E.00459
G1 X123.06 Y116.607 E.00325
G1 X123.06 Y130.893 E.43896
G1 X123.013 Y131.009 E.00385
G1 X122.93 Y131.044 E.00278
G1 E-2.8 F3600
;WIPE_START
G1 F900
G1 X121.93 Y131.045 E-1.2
;WIPE_END
G1 Z.6 F9000
G1 X104.442 Y149.972 Z.6
G1 Z.2
G1 E4 F2400
;TYPE:Inner wall
G1 F900
G1 X104.412 Y150.118 E.00458
G1 X104.237 Y150.342 E.00871
G1 X104.006 Y150.459 E.00797
G1 X87.607 Y150.459 E.50388
G1 X87.325 Y150.383 E.00898
G1 X87.18 Y150.264 E.00577
G1 X87.088 Y150.118 E.00529
G1 X87.041 Y149.893 E.00707
G1 X87.041 Y135.607 E.43896
G1 X87.088 Y135.382 E.00707
G1 X87.263 Y135.159 E.00871
G1 X87.494 Y135.042 E.00797
G1 X103.893 Y135.042 E.50388
G1 X104.175 Y135.117 E.00898
G1 X104.32 Y135.236 E.00577
G1 X104.412 Y135.382 E.00529
G1 X104.459 Y135.607 E.00707
G1 X104.459 Y149.893 E.43896
G1 X104.45 Y149.933 E.00126
G1 X104.06 Y149.893 F9000
;TYPE:Outer wall
G1 F900
G1 X103.995 Y150.026 E.00454
G1 X103.893 Y150.06 E.0033
G1 X87.607 Y150.06 E.50042
G1 X87.481 Y150.003 E.00426
G1 X87.44 Y149.893 E.00359
G1 X87.44 Y135.607 E.43896
G1 X87.505 Y135.475 E.00454
G1 X87.607 Y135.44 E.0033
G1 X103.893 Y135.44 E.50042
G1 X104.019 Y135.498 E.00426
G1 X104.06 Y135.607 E.00359
G1 X104.06 Y149.853 E.43773
G1 E-2.8 F3600
;WIPE_START
G1 F900
G1 X103.995 Y150.026 E-.22139
G1 X103.893 Y150.06 E-.12893
G1 X103.185 Y150.06 E-.84968
;WIPE_END
G1 Z.6 F9000
G1 X122.893 Y169.459 Z.6
G1 Z.2
G1 E4 F2400
;TYPE:Inner wall
G1 F900
G1 X106.607 Y169.459 E.50042
G1 X106.325 Y169.383 E.00898
G1 X106.18 Y169.264 E.00577
G1 X106.088 Y169.118 E.00529
G1 X106.041 Y168.893 E.00707
G1 X106.041 Y154.607 E.43896
G1 X106.088 Y154.382 E.00707
G1 X106.263 Y154.159 E.00871
G1 X106.503 Y154.042 E.0082
G1 X122.893 Y154.042 E.50363
G1 X123.175 Y154.117 E.00898
G1 X123.32 Y154.236 E.00577
G1 X123.412 Y154.382 E.00529
G1 X123.459 Y154.607 E.00707
G1 X123.459 Y168.893 E.43896
G1 X123.412 Y169.118 E.00707
G1 X123.237 Y169.342 E.00871
G1 X123.006 Y169.459 E.00797
G1 X122.933 Y169.459 E.00224
G1 X122.893 Y169.06 F9000
;TYPE:Outer wall
G1 F900
G1 X106.607 Y169.06 E.50042
G1 X106.481 Y169.003 E.00426
G1 X106.44 Y168.893 E.00359
G1 X106.44 Y154.607 E.43896
G1 X106.505 Y154.475 E.00454
G1 X106.576 Y154.44 E.00242
G1 X122.893 Y154.44 E.50137
G1 X123.019 Y154.498 E.00426
G1 X123.06 Y154.607 E.00359
G1 X123.06 Y168.893 E.43896
G1 X122.995 Y169.026 E.00454
G1 X122.931 Y169.047 E.00207
G1 E-2.8 F3600
;WIPE_START
G1 F900
G1 X121.931 Y169.048 E-1.2
;WIPE_END
G1 Z.6 F9000
G1 X106.405 Y173.089 Z.6
G1 Z.2
G1 E4 F2400
;TYPE:Inner wall
G1 F900
G1 X106.503 Y173.042 E.00333
G1 X122.893 Y173.042 E.50363
G1 X123.175 Y173.117 E.00898
G1 X123.32 Y173.236 E.00577
G1 X123.412 Y173.382 E.00529
G1 X123.459 Y173.607 E.00707
G1 X123.459 Y187.893 E.43896
G1 X123.412 Y188.118 E.00707
G1 X123.237 Y188.342 E.00871
G1 X123.006 Y188.459 E.00797
G1 X106.607 Y188.459 E.50388
G1 X106.325 Y188.383 E.00898
G1 X106.18 Y188.264 E.00577
G1 X106.088 Y188.118 E.00529
G1 X106.041 Y187.893 E.00707
G1 X106.041 Y173.607 E.43896
G1 X106.088 Y173.382 E.00707
G1 X106.263 Y173.159 E.00871
G1 X106.369 Y173.107 E.00364
G1 X106.576 Y173.44 F9000
;TYPE:Outer wall
G1 F900
G1 X122.893 Y173.44 E.50137
G1 X123.019 Y173.498 E.00426
G1 X123.06 Y173.607 E.00359
G1 X123.06 Y187.893 E.43896
G1 X122.995 Y188.026 E.00454
G1 X122.893 Y188.06 E.0033
G1 X106.607 Y188.06 E.50042
G1 X106.481 Y188.003 E.00426
G1 X106.44 Y187.893 E.00359
G1 X106.44 Y173.607 E.43896
G1 X106.505 Y173.475 E.00454
G1 X106.54 Y173.458 E.00119
G1 E-2.8 F3600
;WIPE_START
G1 F900
G1 X107.54 Y173.457 E-1.2
;WIPE_END
G1 Z.6 F9000
G1 X106.058 Y192.528 Z.6
G1 Z.2
G1 E4 F2400
;TYPE:Inner wall
G1 F900
G1 X106.088 Y192.382 E.00458
G1 X106.263 Y192.159 E.00871
G1 X106.494 Y192.042 E.00797
G1 X122.893 Y192.042 E.50388
G1 X123.175 Y192.117 E.00898
G1 X123.32 Y192.236 E.00577
G1 X123.412 Y192.382 E.00529
G1 X123.459 Y192.607 E.00707
G1 X123.459 Y206.893 E.43896
G1 X123.369 Y207.198 E.00977
G1 X123.154 Y207.395 E.00896
G1 X122.893 Y207.459 E.00826
G1 X106.607 Y207.459 E.50042
G1 X106.346 Y207.395 E.00826
G1 X106.131 Y207.198 E.00896
G1 X106.041 Y206.893 E.00977
G1 X106.041 Y192.607 E.43896
G1 X106.05 Y192.567 E.00126
M73 P0 R228
G1 X106.44 Y192.607 F9000
;TYPE:Outer wall
G1 F900
G1 X106.505 Y192.475 E.00454
G1 X106.596 Y192.44 E.00298
G1 X122.893 Y192.44 E.50076
G1 X123.019 Y192.498 E.00426
M73 P1 R228
G1 X123.06 Y192.607 E.00359
G1 X123.06 Y206.893 E.43896
G1 X122.996 Y207.025 E.0045
G1 X122.893 Y207.06 E.00334
G1 X106.607 Y207.06 E.50042
G1 X106.504 Y207.025 E.00334
G1 X106.44 Y206.893 E.0045
G1 X106.44 Y192.647 E.43773
G1 E-2.8 F3600
;WIPE_START
G1 F900
G1 X106.505 Y192.475 E-.22139
G1 X106.596 Y192.44 E-.11635
G1 X107.314 Y192.44 E-.86226
;WIPE_END
G1 Z.6 F9000
G1 X103.985 Y207.436 Z.6
G1 Z.2
G1 E4 F2400
;TYPE:Inner wall
G1 F900
G1 X103.893 Y207.459 E.00291
G1 X87.607 Y207.459 E.50042
G1 X87.346 Y207.395 E.00826
G1 X87.131 Y207.198 E.00896
G1 X87.041 Y206.893 E.00977
G1 X87.041 Y192.607 E.43896
G1 X87.088 Y192.382 E.00707
G1 X87.263 Y192.159 E.00871
G1 X87.503 Y192.042 E.0082
G1 X103.893 Y192.042 E.50363
G1 X104.175 Y192.117 E.00898
G1 X104.32 Y192.236 E.00577
G1 X104.412 Y192.382 E.00529
G1 X104.459 Y192.607 E.00707
G1 X104.459 Y206.893 E.43896
G1 X104.369 Y207.198 E.00977
G1 X104.154 Y207.395 E.00896
G1 X104.024 Y207.427 E.00412
G1 X103.893 Y207.06 F9000
;TYPE:Outer wall
G1 F900
G1 X87.607 Y207.06 E.50042
G1 X87.504 Y207.025 E.00334
G1 X87.44 Y206.893 E.0045
G1 X87.44 Y192.607 E.43896
G1 X87.505 Y192.475 E.00454
G1 X87.576 Y192.44 E.00242
G1 X103.893 Y192.44 E.50137
G1 X104.019 Y192.498 E.00426
G1 X104.06 Y192.607 E.00359
G1 X104.06 Y206.893 E.43896
G1 X103.996 Y207.025 E.0045
G1 X103.931 Y207.047 E.00211
G1 E-2.8 F3600
;WIPE_START
G1 F900
G1 X102.931 Y207.048 E-1.2
;WIPE_END
G1 Z.6 F9000
G1 X103.992 Y173.068 Z.6
G1 Z.2
G1 E4 F2400
;TYPE:Inner wall
G1 F900
G1 X104.175 Y173.117 E.00581
G1 X104.32 Y173.236 E.00577
G1 X104.412 Y173.382 E.00529
G1 X104.459 Y173.607 E.00707
G1 X104.459 Y187.893 E.43896
G1 X104.412 Y188.118 E.00707
G1 X104.237 Y188.342 E.00871
G1 X104.006 Y188.459 E.00797
G1 X87.607 Y188.459 E.50388
G1 X87.325 Y188.383 E.00898
G1 X87.18 Y188.264 E.00577
G1 X87.088 Y188.118 E.00529
G1 X87.041 Y187.893 E.00707
G1 X87.041 Y173.607 E.43896
G1 X87.088 Y173.382 E.00707
G1 X87.263 Y173.159 E.00871
G1 X87.607 Y173.042 E.01118
G1 X103.893 Y173.042 E.50042
G1 X103.954 Y173.058 E.00193
G1 X103.893 Y173.44 F9000
;TYPE:Outer wall
G1 F900
G1 X104.019 Y173.498 E.00426
G1 X104.06 Y173.607 E.00359
G1 X104.06 Y187.893 E.43896
G1 X103.995 Y188.026 E.00454
G1 X103.893 Y188.06 E.0033
G1 X87.607 Y188.06 E.50042
G1 X87.481 Y188.003 E.00426
G1 X87.44 Y187.893 E.00359
G1 X87.44 Y173.607 E.43896
G1 X87.505 Y173.475 E.00454
G1 X87.557 Y173.44 E.00191
G1 X103.853 Y173.44 E.50072
G1 E-2.8 F3600
;WIPE_START
G1 F900
G1 X104.019 Y173.498 E-.21099
G1 X104.06 Y173.607 E-.14034
G1 X104.06 Y174.314 E-.84867
;WIPE_END
G1 Z.6 F9000
G1 X68.607 Y173.042 Z.6
G1 Z.2
G1 E4 F2400
;TYPE:Inner wall
G1 F900
G1 X84.893 Y173.042 E.50042
G1 X85.175 Y173.117 E.00898
G1 X85.32 Y173.236 E.00577
G1 X85.412 Y173.382 E.00529
G1 X85.459 Y173.607 E.00707
G1 X85.459 Y187.893 E.43896
G1 X85.412 Y188.118 E.00707
G1 X85.237 Y188.342 E.00871
G1 X85.006 Y188.459 E.00797
G1 X68.607 Y188.459 E.50388
G1 X68.325 Y188.383 E.00898
G1 X68.18 Y188.264 E.00577
G1 X68.088 Y188.118 E.00529
G1 X68.041 Y187.893 E.00707
G1 X68.041 Y173.607 E.43896
G1 X68.088 Y173.382 E.00707
G1 X68.263 Y173.159 E.00871
G1 X68.494 Y173.042 E.00797
G1 X68.567 Y173.042 E.00224
G1 X68.607 Y173.44 F9000
;TYPE:Outer wall
G1 F900
G1 X84.893 Y173.44 E.50042
G1 X85.019 Y173.498 E.00426
G1 X85.06 Y173.607 E.00359
G1 X85.06 Y187.893 E.43896
G1 X84.995 Y188.026 E.00454
G1 X84.893 Y188.06 E.0033
G1 X68.607 Y188.06 E.50042
G1 X68.481 Y188.003 E.00426
G1 X68.44 Y187.893 E.00359
G1 X68.44 Y173.607 E.43896
G1 X68.505 Y173.475 E.00454
G1 X68.569 Y173.453 E.00207
G1 E-2.8 F3600
;WIPE_START
G1 F900
G1 X69.569 Y173.452 E-1.2
;WIPE_END
G1 Z.6 F9000
G1 X85.442 Y168.972 Z.6
G1 Z.2
G1 E4 F2400
;TYPE:Inner wall
G1 F900
G1 X85.412 Y169.118 E.00458
